apps/scalable/kblogger.svg

<svg xmlns="http://www.w3.org/2000/svg" style="isolation:isolate" width="256" height="256"><defs><filter id="a" width="270.648" height="254.338" x="-7.32" y="2.95" filterUnits="userSpaceOnUse"><feGaussianBlur xmlns="http://www.w3.org/2000/svg" in="SourceGraphic" stdDeviation="4.294"/><feOffset xmlns="http://www.w3.org/2000/svg" dy="4" result="pf_100_offsetBlur"/><feFlood xmlns="http://www.w3.org/2000/svg" flood-opacity=".4"/><feComposite xmlns="http://www.w3.org/2000/svg" in2="pf_100_offsetBlur" operator="in" result="pf_100_dropShadow"/><feBlend xmlns="http://www.w3.org/2000/svg" in="SourceGraphic" in2="pf_100_dropShadow"/></filter></defs><path fill="#FB7C38" d="M165.685 11.947c74.055 0 84.639 10.557 84.639 84.544v59.251c0 73.986-10.584 84.543-84.639 84.543h-75.37c-74.055 0-84.639-10.557-84.639-84.543V96.491c0-73.987 10.584-84.544 84.639-84.544h75.37z" filter="url(#a)"/><path fill="#F7F7F7" d="M156.94 189.704c6.679-1.205 12.219-3.647 17.712-7.807 2.359-1.788 6.361-5.813 7.622-7.667l1.737-2.557c2.645-3.895 4.662-9.109 5.652-14.605.596-3.311.647-4.92.647-20.305 0-15.87-.031-16.795-.632-18.399-.807-2.154-2.21-3.852-4.105-4.966-1.439-.846-1.701-.884-7.086-1.038-5.193-.148-5.684-.215-6.871-.931-3.417-2.06-4.224-3.691-4.823-9.747-.526-5.318-.577-5.581-1.787-9.259-3.088-9.385-9.994-17.487-18.701-21.939-3.48-1.78-7.116-3.116-10.64-3.911-2.821-.636-4.094-.692-17.969-.794-13.925-.103-15.179-.066-18.586.544-5.794 1.037-10.388 2.898-15.534 6.292-8.739 5.763-14.886 14.857-17.153 25.375-.538 2.5-.583 4.785-.583 30.029 0 25.638.038 27.499.608 30.191 1.057 4.985 3.675 11.159 6.098 14.377.534.709 1.214 1.67 1.513 2.136.848 1.324 5.418 5.807 7.486 7.344 5.228 3.886 11.066 6.467 17.213 7.612 2.935.546 5.273.597 28.942.624 24.3.031 25.945-.003 29.24-.599z"/><path fill="#FB7C38" d="M101.312 158.257c-1.904-.898-2.772-1.782-3.648-3.715-1.333-2.94-.712-6.296 1.592-8.6 2.248-2.248.281-2.096 28.333-2.192 21.707-.075 25.478-.019 26.443.383 4.29 1.792 6.142 6.453 4.201 10.569-.897 1.904-1.781 2.772-3.714 3.648-1.408.639-1.961.652-26.523.656l-25.086.004-1.598-.754v.001zM101.624 111.769c-2.787-1.281-4.626-4.024-4.626-6.9 0-3.334 1.464-5.739 4.314-7.087l1.598-.755 13.512-.003 13.512-.003 1.507.767c5.401 2.749 5.67 10.211.485 13.454l-1.533.958-13.741.08c-12.789.074-13.831.039-15.028-.511z"/><g opacity=".4"><linearGradient id="b" x1=".517" x2=".517" y2="1"><stop offset="0%" stop-color="#fff"/><stop offset="12.5%" stop-opacity=".098" stop-color="#fff"/><stop offset="92.5%" stop-opacity=".098"/><stop offset="100%" stop-opacity=".498"/></linearGradient><path fill="none" stroke="url(#b)" stroke-linecap="round" stroke-linejoin="round" stroke-width="4.077" d="M165.685 11.947c74.055 0 84.639 10.557 84.639 84.544v59.251c0 73.986-10.584 84.543-84.639 84.543h-75.37c-74.055 0-84.639-10.557-84.639-84.543V96.491c0-73.987 10.584-84.544 84.639-84.544h75.37z" vector-effect="non-scaling-stroke"/></g></svg>

<svg xmlns="http://www.w3.org/2000/svg" style="isolation:isolate" width="256" height="256" viewBox="0 0 256 256">
 <defs>
  <filter id="02kFqbZaYVBWVGO4KiZCYxXCbdgeRwEQ" width="270.648" height="254.338" x="-7.32" y="2.95" filterUnits="userSpaceOnUse">
   <feGaussianBlur xmlns="http://www.w3.org/2000/svg" in="SourceGraphic" stdDeviation="4.294"/>
   <feOffset xmlns="http://www.w3.org/2000/svg" dx="0" dy="4" result="pf_100_offsetBlur"/>
   <feFlood xmlns="http://www.w3.org/2000/svg" flood-opacity=".4"/>
   <feComposite xmlns="http://www.w3.org/2000/svg" in2="pf_100_offsetBlur" operator="in" result="pf_100_dropShadow"/>
   <feBlend xmlns="http://www.w3.org/2000/svg" in="SourceGraphic" in2="pf_100_dropShadow" mode="normal"/>
  </filter>
 </defs>
 <g filter="url(#02kFqbZaYVBWVGO4KiZCYxXCbdgeRwEQ)">
  <path fill="#FB7C38" d="M 165.685 11.947 C 239.74 11.947 250.324 22.504 250.324 96.491 L 250.324 155.742 C 250.324 229.728 239.74 240.285 165.685 240.285 L 90.315 240.285 C 16.26 240.285 5.676 229.728 5.676 155.742 L 5.676 96.491 C 5.676 22.504 16.26 11.947 90.315 11.947 L 165.685 11.947 Z"/>
 </g>
 <g>
  <path fill="#F7F7F7" d="M 156.94 189.704 C 163.619 188.499 169.159 186.057 174.652 181.897 C 177.011 180.109 181.013 176.084 182.274 174.23 C 182.74 173.545 183.521 172.395 184.011 171.673 C 186.656 167.778 188.673 162.564 189.663 157.068 C 190.259 153.757 190.31 152.148 190.31 136.763 C 190.31 120.893 190.279 119.968 189.678 118.364 C 188.871 116.21 187.468 114.512 185.573 113.398 C 184.134 112.552 183.872 112.514 178.487 112.36 C 173.294 112.212 172.803 112.145 171.616 111.429 C 168.199 109.369 167.392 107.738 166.793 101.682 C 166.267 96.364 166.216 96.101 165.006 92.423 C 161.918 83.038 155.012 74.936 146.305 70.484 C 142.825 68.704 139.189 67.368 135.665 66.573 C 132.844 65.937 131.571 65.881 117.696 65.779 C 103.771 65.676 102.517 65.713 99.11 66.323 C 93.316 67.36 88.722 69.221 83.576 72.615 C 74.837 78.378 68.69 87.472 66.423 97.99 C 65.885 100.49 65.84 102.775 65.84 128.019 C 65.84 153.657 65.878 155.518 66.448 158.21 C 67.505 163.195 70.123 169.369 72.546 172.587 C 73.08 173.296 73.76 174.257 74.059 174.723 C 74.907 176.047 79.477 180.53 81.545 182.067 C 86.773 185.953 92.611 188.534 98.758 189.679 C 101.693 190.225 104.031 190.276 127.7 190.303 C 152 190.334 153.645 190.3 156.94 189.704 L 156.94 189.704 Z"/>
  <path fill="#FB7C38" d="M 101.312 158.257 C 99.408 157.359 98.54 156.475 97.664 154.542 C 96.331 151.602 96.952 148.246 99.256 145.942 C 101.504 143.694 99.537 143.846 127.589 143.75 C 149.296 143.675 153.067 143.731 154.032 144.133 C 158.322 145.925 160.174 150.586 158.233 154.702 C 157.336 156.606 156.452 157.474 154.519 158.35 C 153.111 158.989 152.558 159.002 127.996 159.006 L 102.91 159.01 L 101.312 158.256 L 101.312 158.257 Z"/>
  <path fill="#FB7C38" d="M 101.624 111.769 C 98.837 110.488 96.998 107.745 96.998 104.869 C 96.998 101.535 98.462 99.13 101.312 97.782 L 102.91 97.027 L 116.422 97.024 L 129.934 97.021 L 131.441 97.788 C 136.842 100.537 137.111 107.999 131.926 111.242 L 130.393 112.2 L 116.652 112.28 C 103.863 112.354 102.821 112.319 101.624 111.769 L 101.624 111.769 Z"/>
 </g>
 <g opacity=".4">
  <linearGradient id="_lgradient_174" x1=".517" x2=".517" y1="0" y2="1">
   <stop offset="0%" style="stop-color:rgb(255,255,255)"/>
   <stop offset="12.5%" stop-opacity=".098" style="stop-color:rgb(255,255,255)"/>
   <stop offset="92.5%" stop-opacity=".098" style="stop-color:rgb(0,0,0)"/>
   <stop offset="100%" stop-opacity=".498" style="stop-color:rgb(0,0,0)"/>
  </linearGradient>
  <path fill="none" stroke="url(#_lgradient_174)" stroke-linecap="round" stroke-linejoin="round" stroke-width="4.077" d="M 165.685 11.947 C 239.74 11.947 250.324 22.504 250.324 96.491 L 250.324 155.742 C 250.324 229.728 239.74 240.285 165.685 240.285 L 90.315 240.285 C 16.26 240.285 5.676 229.728 5.676 155.742 L 5.676 96.491 C 5.676 22.504 16.26 11.947 90.315 11.947 L 165.685 11.947 Z" vector-effect="non-scaling-stroke"/>
 </g>
</svg>
